app/assets/images/Contenido/Compartir 2.svg

<svg fill="none" height="81" viewBox="0 0 81 81" width="81" xmlns="http://www.w3.org/2000/svg" xmlns:xlink="http://www.w3.org/1999/xlink"><filter id="a" color-interpolation-filters="sRGB" filterUnits="userSpaceOnUse" height="81" width="81" x="0" y="0"><feFlood flood-opacity="0" result="BackgroundImageFix"/><feColorMatrix in="SourceAlpha" result="hardAlpha" type="matrix" values="0 0 0 0 0 0 0 0 0 0 0 0 0 0 0 0 0 0 127 0"/><feMorphology in="SourceAlpha" operator="dilate" radius="2" result="effect1_dropShadow_50_6794"/><feOffset/><feGaussianBlur stdDeviation="5"/><feComposite in2="hardAlpha" operator="out"/><feColorMatrix type="matrix" values="0 0 0 0 0 0 0 0 0 0 0 0 0 0 0 0 0 0 0.15 0"/><feBlend in2="BackgroundImageFix" mode="normal" result="effect1_dropShadow_50_6794"/><feBlend in="SourceGraphic" in2="effect1_dropShadow_50_6794" mode="normal" result="shape"/></filter><g filter="url(#a)"><rect fill="#003778" height="57" rx="28.5" width="57" x="12" y="12"/></g><path d="m48.1667 57c-1.3426 0-2.4838-.4813-3.4236-1.4438-.9399-.9624-1.4098-2.1312-1.4098-3.5062 0-.1925.0135-.3922.0403-.599.0269-.2068.0671-.3921.1208-.556l-11.3583-6.765c-.4565.4125-.9667.7359-1.5305.9702-.5639.2343-1.1547.3509-1.7723.3498-1.3426 0-2.4838-.4812-3.4236-1.4437-.9398-.9626-1.4097-2.1313-1.4097-3.5063s.4699-2.5437 1.4097-3.5063c.9398-.9625 2.081-1.4437 3.4236-1.4437.6176 0 1.2084.1172 1.7723.3515.5638.2343 1.074.5571 1.5305.9685l11.3583-6.765c-.0537-.165-.0939-.3504-.1208-.5561-.0268-.2057-.0403-.4053-.0403-.5989 0-1.375.4699-2.5438 1.4098-3.5062.9398-.9625 2.081-1.4438 3.4236-1.4438s2.4838.4813 3.4236 1.4438c.9398.9624 1.4097 2.1312 1.4097 3.5062s-.4699 2.5438-1.4097 3.5063c-.9398.9624-2.081 1.4437-3.4236 1.4437-.6176 0-1.2084-.1166-1.7723-.3498-.5638-.2332-1.074-.5566-1.5305-.9702l-11.3583 6.765c.0537.165.0939.3509.1208.5577.0268.2068.0403.4059.0403.5973 0 .1925-.0135.3921-.0403.5989-.0269.2068-.0671.3922-.1208.5561l11.3583 6.765c.4565-.4125.9667-.7354 1.5305-.9686.5639-.2332 1.1547-.3503 1.7723-.3514 1.3426 0 2.4838.4812 3.4236 1.4437.9398.9626 1.4097 2.1313 1.4097 3.5063s-.4699 2.5438-1.4097 3.5062c-.9398.9625-2.081 1.4438-3.4236 1.4438z" fill="#fff"/></svg>

<svg width="81" height="81" viewBox="0 0 81 81" fill="none" xmlns="http://www.w3.org/2000/svg">
<g filter="url(#filter0_d_50_6794)">
<rect x="12" y="12" width="57" height="57" rx="28.5" fill="#003778"/>
</g>
<path d="M48.1667 57C46.8241 57 45.6829 56.5187 44.7431 55.5562C43.8032 54.5938 43.3333 53.425 43.3333 52.05C43.3333 51.8575 43.3468 51.6578 43.3736 51.451C43.4005 51.2442 43.4407 51.0589 43.4944 50.895L32.1361 44.13C31.6796 44.5425 31.1694 44.8659 30.6056 45.1002C30.0417 45.3345 29.4509 45.4511 28.8333 45.45C27.4907 45.45 26.3495 44.9688 25.4097 44.0063C24.4699 43.0437 24 41.875 24 40.5C24 39.125 24.4699 37.9563 25.4097 36.9937C26.3495 36.0312 27.4907 35.55 28.8333 35.55C29.4509 35.55 30.0417 35.6672 30.6056 35.9015C31.1694 36.1358 31.6796 36.4586 32.1361 36.87L43.4944 30.105C43.4407 29.94 43.4005 29.7546 43.3736 29.5489C43.3468 29.3432 43.3333 29.1436 43.3333 28.95C43.3333 27.575 43.8032 26.4062 44.7431 25.4438C45.6829 24.4813 46.8241 24 48.1667 24C49.5093 24 50.6505 24.4813 51.5903 25.4438C52.5301 26.4062 53 27.575 53 28.95C53 30.325 52.5301 31.4938 51.5903 32.4563C50.6505 33.4187 49.5093 33.9 48.1667 33.9C47.5491 33.9 46.9583 33.7834 46.3944 33.5502C45.8306 33.317 45.3204 32.9936 44.8639 32.58L33.5056 39.345C33.5593 39.51 33.5995 39.6959 33.6264 39.9027C33.6532 40.1095 33.6667 40.3086 33.6667 40.5C33.6667 40.6925 33.6532 40.8921 33.6264 41.0989C33.5995 41.3057 33.5593 41.4911 33.5056 41.655L44.8639 48.42C45.3204 48.0075 45.8306 47.6846 46.3944 47.4514C46.9583 47.2182 47.5491 47.1011 48.1667 47.1C49.5093 47.1 50.6505 47.5812 51.5903 48.5437C52.5301 49.5063 53 50.675 53 52.05C53 53.425 52.5301 54.5938 51.5903 55.5562C50.6505 56.5187 49.5093 57 48.1667 57Z" fill="white"/>
<defs>
<filter id="filter0_d_50_6794" x="0" y="0" width="81" height="81" filterUnits="userSpaceOnUse" color-interpolation-filters="sRGB">
<feFlood flood-opacity="0" result="BackgroundImageFix"/>
<feColorMatrix in="SourceAlpha" type="matrix" values="0 0 0 0 0 0 0 0 0 0 0 0 0 0 0 0 0 0 127 0" result="hardAlpha"/>
<feMorphology radius="2" operator="dilate" in="SourceAlpha" result="effect1_dropShadow_50_6794"/>
<feOffset/>
<feGaussianBlur stdDeviation="5"/>
<feComposite in2="hardAlpha" operator="out"/>
<feColorMatrix type="matrix" values="0 0 0 0 0 0 0 0 0 0 0 0 0 0 0 0 0 0 0.15 0"/>
<feBlend mode="normal" in2="BackgroundImageFix" result="effect1_dropShadow_50_6794"/>
<feBlend mode="normal" in="SourceGraphic" in2="effect1_dropShadow_50_6794" result="shape"/>
</filter>
</defs>
</svg>
